src/common/containers/Feedback/img/mobile_go_avatar.svg

<svg xmlns="http://www.w3.org/2000/svg" xmlns:xlink="http://www.w3.org/1999/xlink" width="87" height="87" viewBox="0 0 87 87">
  <defs>
    <polygon id="mobilego-a" points=".256 .009 25.51 .009 25.51 25.437 .256 25.437"/>
    <polygon id="mobilego-c" points="0 10.807 0 .916 9.794 .916 9.794 10.807"/>
    <polygon id="mobilego-e" points="10.473 .451 10.473 9.761 .994 9.761 .994 .451 10.473 .451"/>
  </defs>
  <g fill="none" fill-rule="evenodd">
    <circle cx="43.5" cy="43.5" r="43.5" fill="#4F77FC"/>
    <g transform="translate(22 24)">
      <g transform="translate(9 .991)">
        <mask id="mobilego-b" fill="#fff">
          <use xlink:href="#mobilego-a"/>
        </mask>
        <path fill="#FFF" d="M25.51,12.9126 C23.43,10.8026 21.302,8.6436 19.081,6.3906 C18.045,7.4956 16.994,8.6166 15.718,9.9776 C16.918,11.0196 17.949,11.9166 18.871,12.7166 C16.788,14.8346 14.808,16.8476 13.019,18.6656 C11.044,16.7666 9.01,14.8096 6.744,12.6296 C9.887,9.5716 13.042,6.5006 16.218,3.4106 C15.092,2.2166 14.051,1.1126 13.011,0.0086 L12.706,0.0086 C11.26,1.5056 9.824,3.0126 8.367,4.4976 C5.634,7.2866 2.888,10.0636 0.256,12.7356 C4.514,17.0166 8.764,21.2886 12.891,25.4366 C17.082,21.2776 21.329,17.0626 25.51,12.9126" mask="url(#mobilego-b)"/>
      </g>
      <path fill="#FFF" d="M21.7947,31.2433 C18.6907,28.0553 15.6087,24.8913 12.5677,21.7673 C11.3357,22.9573 10.2517,24.0033 9.0797,25.1353 C11.8857,27.9443 14.6597,30.6973 17.4047,33.4793 C18.8637,34.9573 20.2737,36.4853 21.7057,37.9913 L22.3167,37.9913 C22.5997,37.5973 22.8347,37.1553 23.1727,36.8153 C27.0437,32.9243 30.9297,29.0483 34.7017,25.2783 C33.5867,24.0843 32.5347,22.9583 31.2547,21.5893 C28.1007,24.8083 25.0127,27.9593 21.7947,31.2433"/>
      <g transform="translate(0 14.991)">
        <mask id="mobilego-d" fill="#fff">
          <use xlink:href="#mobilego-c"/>
        </mask>
        <path fill="#FFF" d="M6.4617,0.916 C5.9147,1.598 5.4977,2.248 4.9577,2.77 C3.3307,4.342 1.6557,5.866 -0.0003,7.409 L-0.0003,8.02 C1.2177,9.02 2.4357,10.019 3.3957,10.807 C5.6277,8.64 7.7937,6.536 9.7937,4.595 C8.7947,3.493 7.7537,2.342 6.4617,0.916" mask="url(#mobilego-d)"/>
      </g>
      <g transform="translate(33 15.991)">
        <mask id="mobilego-f" fill="#fff">
          <use xlink:href="#mobilego-e"/>
        </mask>
        <path fill="#FFF" d="M0.9944,3.3125 C3.2214,5.6015 5.3264,7.7655 7.2664,9.7605 C8.3504,8.7915 9.4714,7.7885 10.4734,6.8925 C8.2684,4.6545 6.1484,2.5015 4.1284,0.4505 C3.0574,1.4285 1.9414,2.4475 0.9944,3.3125" mask="url(#mobilego-f)"/>
      </g>
    </g>
  </g>
</svg>

<svg xmlns="http://www.w3.org/2000/svg" xmlns:xlink="http://www.w3.org/1999/xlink" width="87" height="87" viewBox="0 0 87 87">
    <defs>
        <path id="a" d="M.256.009H25.51v25.428H.256z"/>
        <path id="c" d="M0 10.807V.916h9.794v9.891z"/>
        <path id="e" d="M10.473.45v9.31H.994V.45h9.479z"/>
    </defs>
    <g fill="none" fill-rule="evenodd">
        <circle cx="43.5" cy="43.5" r="43.5" fill="#4F89DC"/>
        <g transform="translate(31 24.991)">
            <mask id="b" fill="#fff">
                <use xlink:href="#a"/>
            </mask>
            <path fill="#FFF" d="M25.51 12.913L19.081 6.39l-3.363 3.587 3.153 2.739-5.852 5.949-6.275-6.036 9.474-9.22A8638.097 8638.097 0 0 1 13.011.01h-.305C11.26 1.506 9.824 3.013 8.367 4.498 5.634 7.287 2.888 10.064.256 12.736l12.635 12.7L25.51 12.914" mask="url(#b)"/>
        </g>
        <path fill="#FFF" d="M43.795 55.243l-9.227-9.476-3.488 3.368c2.806 2.81 5.58 5.562 8.325 8.344 1.459 1.478 2.869 3.006 4.3 4.512h.612c.283-.394.518-.836.856-1.176 3.87-3.89 7.757-7.767 11.529-11.537l-3.447-3.689-9.46 9.654"/>
        <g transform="translate(22 38.991)">
            <mask id="d" fill="#fff">
                <use xlink:href="#c"/>
            </mask>
            <path fill="#FFF" d="M6.462.916c-.547.682-.964 1.332-1.504 1.854C3.33 4.342 1.656 5.866 0 7.409v.611l3.396 2.787 6.398-6.212c-1-1.102-2.04-2.253-3.332-3.679" mask="url(#d)"/>
        </g>
        <g transform="translate(55 39.991)">
            <mask id="f" fill="#fff">
                <use xlink:href="#e"/>
            </mask>
            <path fill="#FFF" d="M.994 3.313L7.266 9.76l3.207-2.867L4.128.45.994 3.312" mask="url(#f)"/>
        </g>
    </g>
</svg>
